X:508
T: "Todesgedanken"
N: Z1188
O: Europa, Mitteleuropa, Deutschland, Sachsen
R: Liebes - Lied, Tod
M: 2/4
L: 1/16
K: F
 | F3GA2cB | A4G4 | F2
FGA2cB | A4G4 | F4z2
FG | A2A2A2GA | B2G2G2
EF | G2G2G2FG | A2
FGA2cB | A4G4 | F4z4

